X:1
T:Title
%%score { 1 | 2 }
L:1/8
M:4/4
K:Db
V:1 treble nm="Grand Piano"
V:2 bass 
V:1
 z4 z2[Q:1/4=88] [DF]>[EG] | [FA]>[_F=G] [=FA]>[_GB] [FA]<[Fd] [Ac]>[GB] | %2
[M:3/4] [FA]>[_F=G] [=FA]>[_GB] [FA]2 |[M:1/4] [DF]>[FA] |[M:4/4] [EG]>[=DF] [EG][CA] F>_F =F[FA] | %5
[M:3/4] =Gd c>B [CA]2 |[M:1/4] [DF]>[EG] |[M:4/4] [FA]>[_F=G] [=FA]>[_GB] [FA]<[Fd] [Ac]>[GB] | %8
[M:3/4] [FA]>[_F=G] [=FA]>[_GB] [FA]2 |[M:1/4] [FA]>[DF] |[M:4/4] [CE]>[CE] [EA]>B c<c [Ae][Fd] | %11
[M:3/4] [Ec]2 [DB]2 [CA]2 |[M:1/4] [GA]>[GA] |[M:4/4] [Fd]2 [Fd]2 [Fd]2 F2 | A<G G>F G3 A | %15
 c2 c2 c2 B2 | [GB]<[FA] [FA]>[_F=G] [=FA]3 [FA] | [FA][DF][EG][_F=G] [_GB] [=FA]2 [FA] | %18
 [FA][DF][EG][_F=G] [_GB][=FA][FA][Fd] | [Ec]<[Ec] [CE][CF] [CA][B,CG][A,CF][K:bass][G,CE] | %20
[M:3/4] [F,A,D]6 |] %21
V:2
 z4 z2 [D,A,]>[D,A,] | [D,D]>[D,D] [D,D]>[D,D] [D,D]<[D,A,] [D,B,]>[D,C] | %2
[M:3/4] [D,D]>[D,D] [D,D]>[D,D] [D,D]2 |[M:1/4] [D,A,]>[D,A,] | %4
[M:4/4] [A,,A,]>[A,,A,] [A,,A,][A,,A,] [D,A,D]>[D,=G,D] [D,A,D][D,D] | %5
[M:3/4] [E,DE][E,B,E] [E,A,E]>[E,=G,D] [A,,A,]2 |[M:1/4] [D,A,]>[D,A,] | %7
[M:4/4] [D,D]>[D,D] [D,D]>[D,D] [D,D]<[D,A,] [D,B,]>[D,C] |[M:3/4] [D,D]>[D,D] [D,D]>[D,D] [D,D]2 | %9
[M:1/4] [D,D]>[D,A,] |[M:4/4] [A,,A,]>[A,,A,] [C,A,]>[E,=G,E] [A,E]<[A,E] [C,A,][D,A,] | %11
[M:3/4] [E,A,]2 [E,=G,]2 [A,,A,]2 |[M:1/4] [A,C]>[A,C] |[M:4/4] [D,A,]2 [D,A,]2 [D,A,]2 [D,A,D]2 | %14
 [A,DF]<[A,CE] [A,CE]>[A,_C=D] [A,=CE]3 [A,CG] | [A,EG]2 [A,EG]2 [A,EG]2 [A,CG]2 | %16
 [D,D]<[D,D] [D,D]>[D,D] [D,D]3 [D,D] | [D,D][D,A,][D,A,][D,B,] [D,D] [D,D]2 [D,D] | %18
 [D,D][D,A,][D,A,][D,B,] [D,D][D,D][D,D][D,A,] | [A,,A,]<[A,,A,] [A,,G,][A,,F,] [A,,E,]A,,A,,A,, | %20
[M:3/4] D,6 |] %21

